;FLAVOR:Marlin
;TIME:1572
;Filament used: 0.46718m
;Layer height: 0.2
;MINX:41.6
;MINY:41.6
;MINZ:0.3
;MAXX:58.4
;MAXY:58.4
;MAXZ:58.9
;Generated with Cura_SteamEngine 4.10.0
M104 S200
M105
M109 S200
M82 ;absolute extrusion mode
M425 X0.2 Y0.36
M425 F1 S0
G28 ;Home
G92 Z0
G1 Z15.0 F600 ;Move the platform down 15mm
;Prime the extruder
G92 E0
G1 F200 E3
G92 E0
G92 E0
G92 E0
G1 F1500 E-6.5
;LAYER_COUNT:297
;LAYER:0
M107
M204 S100
M205 X5 Y5
G0 F1200 X42.215 Y42.521 Z0.3
;TYPE:SKIRT
G1 F1500 E0
G1 F1200 X42.538 Y42.2 E0.02272
G1 X42.913 Y41.941 E0.04546
G1 X43.327 Y41.751 E0.06818
G1 X43.768 Y41.636 E0.09092
G1 X44.2 Y41.6 E0.11255
G1 X55.8 Y41.6 E0.69127
G1 X56.254 Y41.64 E0.71401
G1 X56.694 Y41.758 E0.73674
G1 X57.106 Y41.952 E0.75946
G1 X57.479 Y42.215 E0.78223
G1 X57.8 Y42.538 E0.80495
G1 X58.059 Y42.913 E0.82768
G1 X58.249 Y43.327 E0.85041
G1 X58.364 Y43.768 E0.87315
G1 X58.4 Y44.2 E0.89477
G1 X58.4 Y55.8 E1.4735
G1 X58.36 Y56.254 E1.49624
G1 X58.242 Y56.694 E1.51897
G1 X58.048 Y57.106 E1.54169
G1 X57.785 Y57.479 E1.56446
G1 X57.462 Y57.8 E1.58717
G1 X57.087 Y58.059 E1.60991
G1 X56.673 Y58.249 E1.63264
G1 X56.232 Y58.364 E1.65537
G1 X55.8 Y58.4 E1.677
G1 X44.2 Y58.4 E2.25573
G1 X43.746 Y58.36 E2.27847
G1 X43.306 Y58.242 E2.30119
G1 X42.894 Y58.048 E2.32391
G1 X42.521 Y57.785 E2.34668
G1 X42.2 Y57.462 E2.3694
G1 X41.941 Y57.087 E2.39214
G1 X41.751 Y56.673 E2.41486
G1 X41.636 Y56.232 E2.4376
G1 X41.6 Y55.8 E2.45923
G1 X41.6 Y44.2 E3.03796
G1 X41.64 Y43.746 E3.06069
G1 X41.758 Y43.306 E3.08342
G1 X41.952 Y42.894 E3.10614
G1 X42.215 Y42.521 E3.12891
G0 X42.61 Y42.68
G1 X42.927 Y42.406 E3.14981
G1 X43.29 Y42.197 E3.17071
G1 X43.687 Y42.061 E3.19165
G1 X44.2 Y42 E3.21742
G1 X55.8 Y42 E3.79615
G1 X56.217 Y42.04 E3.81705
G1 X56.619 Y42.158 E3.83795
G1 X56.991 Y42.351 E3.85886
G1 X57.32 Y42.61 E3.87975
G1 X57.594 Y42.927 E3.90065
G1 X57.803 Y43.29 E3.92155
G1 X57.939 Y43.687 E3.94249
G1 X58 Y44.2 E3.96826
G1 X58 Y55.8 E4.54699
G1 X57.96 Y56.217 E4.56789
G1 X57.842 Y56.619 E4.58879
G1 X57.649 Y56.991 E4.6097
G1 X57.39 Y57.32 E4.63059
G1 X57.073 Y57.594 E4.65149
G1 X56.71 Y57.803 E4.67239
G1 X56.313 Y57.939 E4.69332
G1 X55.8 Y58 E4.7191
G1 X44.2 Y58 E5.29782
G1 X43.783 Y57.96 E5.31872
G1 X43.381 Y57.842 E5.33963
G1 X43.009 Y57.649 E5.36053
G1 X42.68 Y57.39 E5.38142
G1 X42.406 Y57.073 E5.40233
G1 X42.197 Y56.71 E5.42323
G1 X42.061 Y56.313 E5.44416
G1 X42 Y55.8 E5.46994
G1 X42 Y44.2 E6.04866
G1 X42.04 Y43.783 E6.06956
G1 X42.158 Y43.381 E6.09046
G1 X42.351 Y43.009 E6.11137
G1 X42.61 Y42.68 E6.13226
G0 X42.748 Y43.136
G1 X43.003 Y42.855 E6.15119
G1 X43.312 Y42.635 E6.17012
G1 X43.659 Y42.483 E6.18902
G1 X44.2 Y42.4 E6.21632
G1 X55.8 Y42.4 E6.79505
G1 X56.177 Y42.44 E6.81396
G1 X56.537 Y42.558 E6.83287
G1 X56.864 Y42.748 E6.85173
G1 X57.145 Y43.003 E6.87066
G1 X57.365 Y43.312 E6.88959
G1 X57.517 Y43.659 E6.90849
G1 X57.6 Y44.2 E6.9358
G1 X57.6 Y55.8 E7.51452
G1 X57.56 Y56.177 E7.53344
G1 X57.442 Y56.537 E7.55234
G1 X57.252 Y56.864 E7.5712
G1 X56.997 Y57.145 E7.59014
G1 X56.688 Y57.365 E7.60906
G1 X56.341 Y57.517 E7.62796
G1 X55.8 Y57.6 E7.65527
G1 X44.2 Y57.6 E8.23399
G1 X43.823 Y57.56 E8.25291
G1 X43.463 Y57.442 E8.27181
G1 X43.136 Y57.252 E8.29068
G1 X42.855 Y56.997 E8.30961
G1 X42.635 Y56.688 E8.32853
G1 X42.483 Y56.341 E8.34743
G1 X42.4 Y55.8 E8.37474
G1 X42.4 Y44.2 E8.95346
G1 X42.44 Y43.823 E8.97238
G1 X42.558 Y43.463 E8.99128
G1 X42.748 Y43.136 E9.01015
G0 X43.145 Y43.279
G1 X43.393 Y43.056 E9.02679
G1 X43.687 Y42.897 E9.04346
G1 X44.2 Y42.8 E9.06951
G1 X55.8 Y42.8 E9.64823
G1 X56.132 Y42.84 E9.66492
G1 X56.444 Y42.957 E9.68154
G1 X56.721 Y43.145 E9.69824
G1 X56.944 Y43.393 E9.71488
G1 X57.103 Y43.687 E9.73156
G1 X57.2 Y44.2 E9.75761
G1 X57.2 Y55.8 E10.33633
G1 X57.16 Y56.132 E10.35302
G1 X57.043 Y56.444 E10.36964
G1 X56.855 Y56.721 E10.38634
G1 X56.607 Y56.944 E10.40298
G1 X56.313 Y57.103 E10.41966
G1 X55.8 Y57.2 E10.4457
G1 X44.2 Y57.2 E11.02443
G1 X43.868 Y57.16 E11.04111
G1 X43.556 Y57.043 E11.05774
G1 X43.279 Y56.855 E11.07444
G1 X43.056 Y56.607 E11.09108
G1 X42.897 Y56.313 E11.10775
G1 X42.8 Y55.8 E11.1338
G1 X42.8 Y44.2 E11.71253
G1 X42.84 Y43.868 E11.72921
G1 X42.957 Y43.556 E11.74583
G1 X43.145 Y43.279 E11.76254
G0 X43.356 Y43.664
G1 X43.539 Y43.449 E11.77662
G1 X43.775 Y43.295 E11.79068
G1 X44.2 Y43.2 E11.81241
G1 X55.8 Y43.2 E12.39113
G1 X56.079 Y43.24 E12.4052
G1 X56.336 Y43.356 E12.41926
G1 X56.551 Y43.539 E12.43335
G1 X56.705 Y43.775 E12.44741
G1 X56.8 Y44.2 E12.46913
G1 X56.8 Y55.8 E13.04786
G1 X56.76 Y56.079 E13.06192
G1 X56.644 Y56.336 E13.07599
G1 X56.461 Y56.551 E13.09008
G1 X56.225 Y56.705 E13.10414
G1 X55.8 Y56.8 E13.12586
G1 X44.2 Y56.8 E13.70459
G1 X43.921 Y56.76 E13.71865
G1 X43.664 Y56.644 E13.73272
G1 X43.449 Y56.461 E13.7468
G1 X43.295 Y56.225 E13.76086
G1 X43.2 Y55.8 E13.78259
G1 X43.2 Y44.2 E14.36132
G1 X43.24 Y43.921 E14.37538
G1 X43.356 Y43.664 E14.38944
G0 X43.753 Y43.799
G1 X43.926 Y43.666 E14.40033
G1 X44.2 Y43.6 E14.41439
G1 X55.8 Y43.6 E14.99312
G1 X56.015 Y43.64 E15.00403
G1 X56.201 Y43.753 E15.01489
G1 X56.334 Y43.926 E15.02577
G1 X56.4 Y44.2 E15.03983
G1 X56.4 Y55.8 E15.61856
G1 X56.36 Y56.015 E15.62947
G1 X56.247 Y56.201 E15.64033
G1 X56.074 Y56.334 E15.65122
G1 X55.8 Y56.4 E15.66528
G1 X44.2 Y56.4 E16.244
G1 X43.985 Y56.36 E16.25491
G1 X43.799 Y56.247 E16.26577
G1 X43.666 Y56.074 E16.27666
G1 X43.6 Y55.8 E16.29072
G1 X43.6 Y44.2 E16.86945
G1 X43.64 Y43.985 E16.88036
G1 X43.753 Y43.799 E16.89121
G0 X44.039 Y44.081
G1 X44.2 Y44 E16.90021
G1 X55.8 Y44 E17.47893
G1 X55.919 Y44.039 E17.48518
G1 X56 Y44.2 E17.49417
G1 X56 Y55.8 E18.0729
G1 X55.961 Y55.919 E18.07914
G1 X55.8 Y56 E18.08814
G1 X44.2 Y56 E18.66686
G1 X44.081 Y55.961 E18.67311
G1 X44 Y55.8 E18.6821
G1 X44 Y44.2 E19.26083
G1 X44.039 Y44.081 E19.26708
G1 F1500 E12.76708
;MESH:Backlashtower_0_20mm.stl
G0 F1200 X44.414 Y44.414
G0 X55.5 Y55.53
G0 X55.6 Y55.6
;TYPE:WALL-OUTER
G1 F1500 E19.26708
G1 F1200 X44.4 Y55.6 E19.82585
G1 X44.4 Y44.4 E20.38462
G1 X55.6 Y44.4 E20.94339
G1 X55.6 Y55.6 E21.50216
G0 X55.4 Y55.6
G0 X55.2 Y55.2
;MESH:NONMESH
G0 F600 X55.2 Y55.2 Z0.5
G0 F1200 X55.6 Y55.6
;TIME_ELAPSED:30.901769
;LAYER:1
M106 S255
;TYPE:WALL-OUTER
;MESH:Backlashtower_0_20mm.stl
G1 F600 X44.4 Y55.6 E21.87467
G1 X44.4 Y44.4 E22.24718
G1 X55.6 Y44.4 E22.6197
G1 X55.6 Y55.6 E22.99221
G0 F1800 X55.4 Y55.6
G0 X55.2 Y55.2
;MESH:NONMESH
G0 F600 X55.2 Y55.2 Z0.7
G0 F1800 X55.6 Y55.6
;TIME_ELAPSED:35.896913
;LAYER:2
;TYPE:WALL-OUTER
;MESH:Backlashtower_0_20mm.stl
G1 F600 X44.4 Y55.6 E23.36472
G1 X44.4 Y44.4 E23.73724
G1 X55.6 Y44.4 E24.10975
G1 X55.6 Y55.6 E24.48227
G0 F2400 X55.4 Y55.6
G0 X55.2 Y55.2
;MESH:NONMESH
G0 F600 X55.2 Y55.2 Z0.9
G0 F2400 X55.6 Y55.6
;TIME_ELAPSED:40.885170
;LAYER:3
;TYPE:WALL-OUTER
;MESH:Backlashtower_0_20mm.stl
G1 F600 X44.4 Y55.6 E24.85478
G1 X44.4 Y44.4 E25.22729
G1 X55.6 Y44.4 E25.59981
G1 X55.6 Y55.6 E25.97232
G0 F2400 X55.4 Y55.6
G0 X55.2 Y55.2
;MESH:NONMESH
G0 F600 X55.2 Y55.2 Z1.1
G0 F2400 X55.6 Y55.6
;TIME_ELAPSED:45.873427
;LAYER:4
;TYPE:WALL-OUTER
;MESH:Backlashtower_0_20mm.stl
G1 F600 X44.4 Y55.6 E26.34483
G1 X44.4 Y44.4 E26.71735
G1 X55.6 Y44.4 E27.08986
G1 X55.6 Y55.6 E27.46237
G0 F2400 X55.4 Y55.6
G0 X55.2 Y55.2
;MESH:NONMESH
G0 F600 X55.2 Y55.2 Z1.3
G0 F2400 X55.6 Y55.6
;TIME_ELAPSED:50.861683
;LAYER:5
;TYPE:WALL-OUTER
;MESH:Backlashtower_0_20mm.stl
G1 F600 X44.4 Y55.6 E27.83489
G1 X44.4 Y44.4 E28.2074
G1 X55.6 Y44.4 E28.57991
G1 X55.6 Y55.6 E28.95243
G0 F2400 X55.4 Y55.6
G0 X55.2 Y55.2
;MESH:NONMESH
G0 F600 X55.2 Y55.2 Z1.5
G0 F2400 X55.6 Y55.6
;TIME_ELAPSED:55.849940
;LAYER:6
;TYPE:WALL-OUTER
;MESH:Backlashtower_0_20mm.stl
G1 F600 X44.4 Y55.6 E29.32494
G1 X44.4 Y44.4 E29.69745
G1 X55.6 Y44.4 E30.06997
G1 X55.6 Y55.6 E30.44248
G0 F2400 X55.4 Y55.6
G0 X55.2 Y55.2
;MESH:NONMESH
G0 F600 X55.2 Y55.2 Z1.7
G0 F2400 X55.6 Y55.6
;TIME_ELAPSED:60.838197
;LAYER:7
;TYPE:WALL-OUTER
;MESH:Backlashtower_0_20mm.stl
G1 F600 X44.4 Y55.6 E30.81499
G1 X44.4 Y44.4 E31.18751
G1 X55.6 Y44.4 E31.56002
G1 X55.6 Y55.6 E31.93254
G0 F2400 X55.4 Y55.6
G0 X55.2 Y55.2
;MESH:NONMESH
G0 F600 X55.2 Y55.2 Z1.9
G0 F2400 X55.6 Y55.6
;TIME_ELAPSED:65.826454
;LAYER:8
;TYPE:WALL-OUTER
;MESH:Backlashtower_0_20mm.stl
G1 F600 X44.4 Y55.6 E32.30505
G1 X44.4 Y44.4 E32.67756
G1 X55.6 Y44.4 E33.05008
G1 X55.6 Y55.6 E33.42259
G0 F2400 X55.4 Y55.6
G0 X55.2 Y55.2
;MESH:NONMESH
G0 F600 X55.2 Y55.2 Z2.1
G0 F2400 X55.5 Y44.79
G0 X55.58 Y44.79
;TIME_ELAPSED:71.314643
;LAYER:9
;TYPE:WALL-OUTER
;MESH:Backlashtower_0_20mm.stl
G1 F600 X55.6 Y44.805 E33.42342
G1 X55.6 Y55.194 E33.76896
G1 X55.219 Y55.599 E33.78745
G1 X44.783 Y55.6 E34.13456
G1 X44.42 Y55.21 E34.15228
G1 X44.4 Y55.195 E34.15311
G1 X44.4 Y44.806 E34.49865
G1 X44.781 Y44.401 E34.51714
G1 X55.217 Y44.4 E34.86425
G1 X55.58 Y44.79 E34.88197
G0 F2400 X55.6 Y44.805
G0 X55.6 Y44.98
G0 X55.2 Y44.98
;MESH:NONMESH
G0 F600 X55.2 Y44.98 Z2.3
G0 F2400 X55.581 Y44.792
;TIME_ELAPSED:76.159030
;LAYER:10
;TYPE:WALL-OUTER
;MESH:Backlashtower_0_20mm.stl
G1 F600 X55.6 Y44.806 E34.88275
G1 X55.6 Y55.194 E35.22826
G1 X55.218 Y55.6 E35.2468
G1 X44.782 Y55.6 E35.5939
G1 X44.419 Y55.208 E35.61167
G1 X44.4 Y55.194 E35.61246
G1 X44.4 Y44.806 E35.95796
G1 X44.782 Y44.4 E35.9765
G1 X55.218 Y44.4 E36.32361
G1 X55.581 Y44.792 E36.34138
G0 F2400 X55.6 Y44.806
G0 X55.6 Y44.983
G0 X55.2 Y44.983
;MESH:NONMESH
G0 F600 X55.2 Y44.983 Z2.5
G0 F2400 X55.581 Y44.792
;TIME_ELAPSED:81.005305
;LAYER:11
;TYPE:WALL-OUTER
;MESH:Backlashtower_0_20mm.stl
G1 F600 X55.6 Y44.806 E36.34216
G1 X55.6 Y55.194 E36.68767
G1 X55.218 Y55.6 E36.70621
G1 X44.782 Y55.6 E37.05331
G1 X44.419 Y55.208 E37.07108
G1 X44.4 Y55.194 E37.07187
G1 X44.4 Y44.806 E37.41737
G1 X44.782 Y44.4 E37.43591
G1 X55.218 Y44.4 E37.78302
G1 X55.581 Y44.792 E37.80079
G0 F2400 X55.6 Y44.806
G0 X55.6 Y44.983
G0 X55.2 Y44.983
;MESH:NONMESH
G0 F600 X55.2 Y44.983 Z2.7
G0 F2400 X55.581 Y44.792
;TIME_ELAPSED:85.851580
;LAYER:12
;TYPE:WALL-OUTER
;MESH:Backlashtower_0_20mm.stl
G1 F600 X55.6 Y44.806 E37.80157
G1 X55.6 Y55.194 E38.14708
G1 X55.218 Y55.6 E38.16562
G1 X44.782 Y55.6 E38.51272
G1 X44.419 Y55.208 E38.53049
G1 X44.4 Y55.194 E38.53128
G1 X44.4 Y44.806 E38.87678
G1 X44.782 Y44.4 E38.89532
G1 X55.218 Y44.4 E39.24243
G1 X55.581 Y44.792 E39.2602
G0 F2400 X55.6 Y44.806
G0 X55.6 Y44.983
G0 X55.2 Y44.983
;MESH:NONMESH
G0 F600 X55.2 Y44.983 Z2.9
G0 F2400 X55.581 Y44.792
;TIME_ELAPSED:90.697856
;LAYER:13
;TYPE:WALL-OUTER
;MESH:Backlashtower_0_20mm.stl
G1 F600 X55.6 Y44.806 E39.26098
G1 X55.6 Y55.194 E39.60649
G1 X55.218 Y55.6 E39.62503
G1 X44.782 Y55.6 E39.97213
G1 X44.419 Y55.208 E39.9899
G1 X44.4 Y55.194 E39.99068
G1 X44.4 Y44.806 E40.33619
G1 X44.782 Y44.4 E40.35473
G1 X55.218 Y44.4 E40.70184
G1 X55.581 Y44.792 E40.7196
G0 F2400 X55.6 Y44.806
G0 X55.6 Y44.983
G0 X55.2 Y44.983
;MESH:NONMESH
G0 F600 X55.2 Y44.983 Z3.1
G0 F2400 X44.99 Y55.435
;TIME_ELAPSED:96.176444
;LAYER:14
;TYPE:WALL-OUTER
;MESH:Backlashtower_0_20mm.stl
G1 F640.9 X44.85 Y55.713 E40.72996
G1 X44.85 Y55.849 E40.73448
G1 X44.35 Y55.85 E40.75111
G1 X44.15 Y55.85 E40.75776
G1 X44.15 Y55.65 E40.76207
G1 X44.15 Y55.15 E40.7787
G1 X44.272 Y55.15 E40.78276
G1 X44.5 Y55.075 E40.79074
G1 X44.64 Y54.797 E40.80109
G1 X44.64 Y45.219 E41.11966
G1 X44.565 Y44.991 E41.12764
G1 X44.288 Y44.851 E41.13796
G1 X44.15 Y44.851 E41.14255
G1 X44.15 Y44.151 E41.16584
G1 X44.85 Y44.15 E41.18912
G1 X44.85 Y44.271 E41.19314
G1 X44.925 Y44.499 E41.20113
G1 X45.203 Y44.639 E41.21148
G1 X54.782 Y44.64 E41.53008
G1 X55.01 Y44.565 E41.53806
G1 X55.15 Y44.287 E41.54841
G1 X55.15 Y44.151 E41.55294
G1 X55.65 Y44.15 E41.56957
G1 X55.85 Y44.15 E41.57622
G1 X55.85 Y44.35 E41.58053
G1 X55.85 Y44.85 E41.59716
G1 X55.728 Y44.85 E41.60121
G1 X55.5 Y44.925 E41.6092
G1 X55.36 Y45.203 E41.61955
G1 X55.36 Y54.781 E41.93812
G1 X55.435 Y55.009 E41.9461
G1 X55.712 Y55.149 E41.95642
G1 X55.85 Y55.149 E41.96101
G1 X55.85 Y55.849 E41.98429
G1 X55.15 Y55.85 E42.00758
G1 X55.15 Y55.729 E42.0116
G1 X55.075 Y55.501 E42.01958
G1 X54.797 Y55.361 E42.02994
G1 X45.218 Y55.36 E42.34853
G1 X44.99 Y55.435 E42.35652
G0 F2400 X44.9 Y55.613
G0 X44.558 Y55.477
;MESH:NONMESH
G0 F600 X44.558 Y55.477 Z3.3
G0 F2400 X44.99 Y55.435
;TIME_ELAPSED:101.772870
;LAYER:15
;TYPE:WALL-OUTER
;MESH:Backlashtower_0_20mm.stl
G1 F600 X44.85 Y55.713 E42.36687
G1 X44.85 Y55.85 E42.37143
G1 X44.15 Y55.85 E42.39471
G1 X44.15 Y55.15 E42.41799
G1 X44.272 Y55.15 E42.42205
G1 X44.5 Y55.075 E42.43003
G1 X44.64 Y54.797 E42.44038
G1 X44.64 Y45.218 E42.75898
G1 X44.565 Y44.99 E42.76697
G1 X44.287 Y44.85 E42.77732
G1 X44.15 Y44.85 E42.78188
G1 X44.15 Y44.15 E42.80516
G1 X44.85 Y44.15 E42.82844
G1 X44.85 Y44.272 E42.8325
G1 X44.925 Y44.5 E42.84048
G1 X45.203 Y44.64 E42.85083
G1 X54.782 Y44.64 E43.16943
G1 X55.01 Y44.565 E43.17742
G1 X55.15 Y44.287 E43.18777
G1 X55.15 Y44.15 E43.19232
G1 X55.85 Y44.15 E43.21561
G1 X55.85 Y44.85 E43.23889
G1 X55.728 Y44.85 E43.24295
G1 X55.5 Y44.925 E43.25093
G1 X55.36 Y45.203 E43.26128
G1 X55.36 Y54.782 E43.57988
G1 X55.435 Y55.01 E43.58786
G1 X55.713 Y55.15 E43.59822
G1 X55.85 Y55.15 E43.60277
G1 X55.85 Y55.85 E43.62606
G1 X55.15 Y55.85 E43.64934
G1 X55.15 Y55.728 E43.65339
G1 X55.075 Y55.5 E43.66138
G1 X54.797 Y55.36 E43.67173
G1 X45.218 Y55.36 E43.99033
G1 X44.99 Y55.435 E43.99831
G0 F2400 X44.9 Y55.613
G0 X44.558 Y55.477
;MESH:NONMESH
G0 F600 X44.558 Y55.477 Z3.5
G0 F2400 X44.99 Y55.435
;TIME_ELAPSED:107.612609
;LAYER:16
;TYPE:WALL-OUTER
;MESH:Backlashtower_0_20mm.stl
G1 F600 X44.85 Y55.713 E44.00867
G1 X44.85 Y55.85 E44.01322
G1 X44.15 Y55.85 E44.0365
G1 X44.15 Y55.15 E44.05979
G1 X44.272 Y55.15 E44.06384
G1 X44.5 Y55.075 E44.07183
G1 X44.64 Y54.797 E44.08218
G1 X44.64 Y45.218 E44.40078
G1 X44.565 Y44.99 E44.40876
G1 X44.287 Y44.85 E44.41911
G1 X44.15 Y44.85 E44.42367
G1 X44.15 Y44.15 E44.44695
G1 X44.85 Y44.15 E44.47023
G1 X44.85 Y44.272 E44.47429
G1 X44.925 Y44.5 E44.48228
G1 X45.203 Y44.64 E44.49263
G1 X54.782 Y44.64 E44.81123
G1 X55.01 Y44.565 E44.81921
G1 X55.15 Y44.287 E44.82956
G1 X55.15 Y44.15 E44.83412
G1 X55.85 Y44.15 E44.8574
G1 X55.85 Y44.85 E44.88068
G1 X55.728 Y44.85 E44.88474
G1 X55.5 Y44.925 E44.89272
G1 X55.36 Y45.203 E44.90308
G1 X55.36 Y54.782 E45.22168
G1 X55.435 Y55.01 E45.22966
G1 X55.713 Y55.15 E45.24001
G1 X55.85 Y55.15 E45.24457
G1 X55.85 Y55.85 E45.26785
G1 X55.15 Y55.85 E45.29113
G1 X55.15 Y55.728 E45.29519
G1 X55.075 Y55.5 E45.30317
G1 X54.797 Y55.36 E45.31353
G1 X45.218 Y55.36 E45.63212
G1 X44.99 Y55.435 E45.64011
G0 F2400 X44.9 Y55.613
G0 X44.558 Y55.477
;MESH:NONMESH
G0 F600 X44.558 Y55.477 Z3.7
G0 F2400 X44.99 Y55.435
;TIME_ELAPSED:113.452349
;LAYER:17
;TYPE:WALL-OUTER
;MESH:Backlashtower_0_20mm.stl
G1 F600 X44.85 Y55.713 E45.65046
G1 X44.85 Y55.85 E45.65502
G1 X44.15 Y55.85 E45.6783
G1 X44.15 Y55.15 E45.70158
G1 X44.272 Y55.15 E45.70564
G1 X44.5 Y55.075 E45.71362
G1 X44.64 Y54.797 E45.72397
G1 X44.64 Y45.218 E46.04257
G1 X44.565 Y44.99 E46.05056
G1 X44.287 Y44.85 E46.06091
G1 X44.15 Y44.85 E46.06547
G1 X44.15 Y44.15 E46.08875
G1 X44.85 Y44.15 E46.11203
G1 X44.85 Y44.272 E46.11609
G1 X44.925 Y44.5 E46.12407
G1 X45.203 Y44.64 E46.13442
G1 X54.782 Y44.64 E46.45302
G1 X55.01 Y44.565 E46.461
G1 X55.15 Y44.287 E46.47136
G1 X55.15 Y44.15 E46.47591
G1 X55.85 Y44.15 E46.4992
G1 X55.85 Y44.85 E46.52248
G1 X55.728 Y44.85 E46.52654
G1 X55.5 Y44.925 E46.53452
G1 X55.36 Y45.203 E46.54487
G1 X55.36 Y54.782 E46.86347
G1 X55.435 Y55.01 E46.87145
G1 X55.713 Y55.15 E46.88181
G1 X55.85 Y55.15 E46.88636
G1 X55.85 Y55.85 E46.90965
